images/ic_chat.svg

<svg width="20" height="21" viewBox="0 0 20 21" fill="none" xmlns="http://www.w3.org/2000/svg">
<path d="M17.0461 2.72729C15.1606 1.00382 12.6581 0.0546875 10 0.0546875C7.34189 0.0546875 4.83951 1.00382 2.95393 2.72729C1.04909 4.46831 2.60473e-05 6.78865 2.60473e-05 9.26086C2.60473e-05 11.1889 0.631353 13.0156 1.83088 14.5728L0.0569791 18.9548C-0.0622004 19.2492 0.00916666 19.5863 0.237487 19.8074C0.386315 19.9514 0.58233 20.0274 0.78147 20.0274C0.887837 20.0274 0.995103 20.0057 1.09643 19.9611L6.12205 17.7488C7.35021 18.2255 8.65318 18.467 10 18.467C11.6858 18.467 13.3527 18.0736 14.8203 17.3292C15.205 17.1341 15.3584 16.6645 15.1631 16.2803C14.9677 15.8961 14.4974 15.7429 14.1127 15.938C12.8633 16.5717 11.4411 16.9067 10 16.9067C8.74794 16.9067 7.54228 16.6635 6.41654 16.1839C6.21771 16.0991 5.99264 16.1005 5.79482 16.1876L2.22666 17.7583L3.4519 14.7316C3.561 14.4621 3.51104 14.1543 3.32217 13.9331C2.171 12.5844 1.56252 10.9688 1.56252 9.26086C1.56252 5.04494 5.34756 1.61506 10 1.61506C14.6525 1.61506 18.4375 5.04494 18.4375 9.26086C18.4375 10.7126 17.9864 12.1252 17.1329 13.3457C16.8859 13.6989 16.9723 14.1853 17.3261 14.432C17.6798 14.6787 18.167 14.5923 18.4139 14.239C19.4516 12.7552 20 11.0338 20 9.26086C20 6.78865 18.951 4.46831 17.0461 2.72729Z" fill="#929292"/>
</svg>

<svg xmlns="http://www.w3.org/2000/svg" fill="none" viewBox="0 0 20 21"><path d="M17.046 2.727C15.16 1.004 12.658.055 10 .055s-5.16.95-7.046 2.673C1.05 4.468 0 6.79 0 9.26c0 1.928.63 3.755 1.83 5.312L.057 18.955a.78.78 0 0 0 .181.853.78.78 0 0 0 .859.154l5.026-2.212c1.228.477 2.53.718 3.878.718a10.7 10.7 0 0 0 4.82-1.138.78.78 0 1 0-.708-1.391 9.13 9.13 0 0 1-4.113.969 9.09 9.09 0 0 1-3.583-.723.78.78 0 0 0-.622.004l-3.568 1.57 1.225-3.027a.78.78 0 0 0-.13-.799c-1.15-1.35-1.76-2.964-1.76-4.672 0-4.216 3.785-7.646 8.438-7.646s8.438 3.43 8.438 7.646c0 1.452-.45 2.864-1.305 4.085a.78.78 0 1 0 1.281.893C19.452 12.755 20 11.034 20 9.26c0-2.472-1.05-4.793-2.954-6.534z" fill="#929292"/></svg>
